X:1
T:There’s a Church Within Us, O Lord
T:There’s a Church Within Us, O Lord
T:Kent E. Schneider
T:Kent E. Schneider, 1967
T:© 1967 Hope Publishing Company Courtesy of the Cyber Hymnal™
C:Kent E. Schneider
Z:© 1967 Hope Publishing Company
Z:Courtesy of the Cyber Hymnal™
%%score ( 1 2 ) ( 3 4 )
L:1/8
Q:1/4=115
M:2/2
K:F
V:1 treble 
V:2 treble 
V:3 bass 
V:4 bass 
V:1
 D2 F2 | (A2 A4) (AA) | [G=B] [GB]3 (A2 G2) | A8- | [FA]4 A2 c2 | (d2 d4) (dd) | %6
w: 1.~There’s a|church * with- *|in us, O *|Lord,|* There’s a|church * with- *|
w: 2.~There’s po-|tential * with- *|in us, O *|Lord;|* Some- thing’s|stirring * with- *|
w: 3.~There’s a|fire * with- *|in us, O *|Lord;|* A new|life’s * a- *|
w: 4.~There’s some|build- * ing *|to~be done, O *|Lord,|* There’s some|building * to *|
w: 5.~There’s the|church * with- *|in us, O *|Lord,|* There’s the|church * with- *|
 [Fc]2 [FA]2 (F2 G2) | [EA]8- | [EA]4 [EA]2 [A^c]2 | [Ad]2 [Ad]2 [Ee]2 [Ed]2 | [Fc]6 AA | %11
w: in us, O *|Lord.|* Not a|build- ing, but a|soul, Not a|
w: in us, O *|Lord.|* Some- thing’s|strain- ing to have|birth, To be|
w: burn- in’, O *|Lord.|* A ~|fi- re for new|life, Co- m-|
w: be done, O *|Lord.|* Not with|ste- el, not with|stone, But with|
w: in us, O *|Lord.|* Not a|build- ing, but one|soul, Not a|
 [DG]2 [DF]2 [DF]2 [DG]2 | [FA]4 D2 F2 | (A2 A4) (AA) | =B [GB]3 (A2 G2) | A8- | [FA]4 |] %17
w: por- tion but a|whole— There’s a|church * with- *|in us, O *|Lord.||
w: vi- si- ble on|earth There’s po-|tential * with- *|in us, O *|Lord.||
w: bat- ing pre- sent|strife— There’s a|fire * with- *|in us, O *|Lord.||
w: lives which are our|own— There’s the|church * to *|be built, O *|Lord.||
w: por- tion, but one|whole— W- e|are * your *|church in the *|world.||
V:2
 D2 F2 | F6 F2 | x4 D4 | F4 D4 | x4 F4 | G6 G2 | x4 F4 | x8 | x8 | x8 | x6 F2 | x8 | x4 D2 F2 | %13
 F6 F2 | G2 x D4 x | F4 D4 | x4 |] %17
V:3
 D,2 F,2 | [D,D]6 [D,D]2 | [G,D] [G,D]3 [G,=B,]4 | ([D,D]4 [G,=B,]4 | [D,D]4) C2 A,2 | %5
 [G,=B,]6 [G,B,]2 | A,2 [F,C]2 [A,C]4 | [A,-D]8 | [A,^C]4 C2 E2 | [F,D]2 [F,D]2 [A,C]2 [A,C]2 | %10
 [F,A,]6 [F,C]2 | [G,=B,]2 [G,B,]2 [G,B,]2 [G,B,]2 | [D,D]4 D,2 F,2 | [D,D]6 [D,D]2 | %14
 [G,D] [G,D]3 [G,=B,]4 | ([D,D]4 [G,=B,]4 | [D,D]4) |] %17
V:4
 D,2 F,2 | x8 | x8 | x8 | x4 D,4 | x8 | A,2 x6 | x8 | x4 G,4 | x8 | x8 | x8 | x4 D,2 F,2 | x8 | %14
 x8 | x8 | x4 |] %17

